public/static/img/common/notice-active.svg

<svg xmlns="http://www.w3.org/2000/svg" viewBox="0 0 16 16"><path d="M13.4307 12.8131H3.50661C3.22179 12.8131 2.95674 12.6715 2.79704 12.4361C2.63735 12.199 2.60607 11.9011 2.71308 11.636L3.52307 9.63571V6.59659C3.52307 5.95617 3.64984 5.33386 3.90008 4.74612C4.14044 4.17979 4.48453 3.67107 4.92245 3.23315C5.36037 2.79522 5.86909 2.45114 6.43542 2.21078C7.02316 1.96054 7.64547 1.83377 8.28589 1.83377H8.29742C8.93784 1.83377 9.56015 1.96054 10.1479 2.21078C10.7142 2.45114 11.2229 2.79522 11.6609 3.23315C12.0988 3.67107 12.4429 4.17979 12.6832 4.74612C12.9335 5.33386 13.0602 5.95617 13.0602 6.59659V9.59784L14.1715 11.5306C14.3263 11.799 14.3246 12.1184 14.1699 12.3867C14.0168 12.6534 13.7385 12.8131 13.4307 12.8131ZM3.79965 11.7595H13.0882L12.0066 9.87936V6.59659C12.0066 5.61044 11.6197 4.68027 10.9167 3.97729C10.2137 3.27431 9.28357 2.88742 8.29742 2.88742H8.28589C7.29974 2.88742 6.36957 3.27431 5.66659 3.97729C4.96361 4.68027 4.57672 5.61044 4.57672 6.59659V9.8415L3.79965 11.7595ZM6.982 3.03559C6.75975 3.03559 6.56384 2.87589 6.52432 2.65035C6.50621 2.54828 6.49798 2.44456 6.49798 2.34249C6.49798 1.36292 7.2948 0.564453 8.27601 0.564453C9.25723 0.564453 10.054 1.36127 10.054 2.34249C10.054 2.44456 10.0442 2.54828 10.0277 2.65035C9.98325 2.90059 9.74618 3.07016 9.4943 3.029L8.55918 2.87754C8.3715 2.84626 8.18053 2.84626 7.9912 2.87754L7.05609 3.029C7.03139 3.03394 7.0067 3.03559 6.982 3.03559ZM8.27437 1.92432C8.41924 1.92432 8.56412 1.93584 8.70735 1.95889L9.05637 2.01487C8.92796 1.7103 8.62668 1.49463 8.27437 1.49463C7.92205 1.49463 7.62078 1.7103 7.49236 2.01487L7.84138 1.95889C7.98626 1.93584 8.13114 1.92432 8.27437 1.92432ZM10.6895 14.7772H6.05841C5.76866 14.7772 5.53159 14.5401 5.53159 14.2504C5.53159 13.9606 5.76866 13.7235 6.05841 13.7235H10.6895C10.9793 13.7235 11.2164 13.9606 11.2164 14.2504C11.2164 14.5401 10.9793 14.7772 10.6895 14.7772Z" fill="#00A609"/></svg>

<svg xmlns="http://www.w3.org/2000/svg" viewBox="0 0 16 16"><path d="M13.43 12.813H3.508a.857.857 0 0 1-.794-1.177l.81-2v-3.04a4.762 4.762 0 0 1 1.4-3.363 4.762 4.762 0 0 1 3.363-1.4h.011a4.763 4.763 0 0 1 3.363 1.4 4.761 4.761 0 0 1 1.4 3.364v3l1.111 1.934a.847.847 0 0 1-.001.856.845.845 0 0 1-.74.426ZM3.8 11.76h9.288l-1.081-1.88V6.597c0-.987-.387-1.917-1.09-2.62a3.682 3.682 0 0 0-2.62-1.09h-.011c-.986 0-1.916.387-2.62 1.09a3.682 3.682 0 0 0-1.09 2.62V9.84L3.8 11.76Zm3.182-8.723a.465.465 0 0 1-.458-.386A1.78 1.78 0 0 1 8.276.564a1.779 1.779 0 0 1 1.752 2.086.466.466 0 0 1-.534.379l-.935-.151a1.73 1.73 0 0 0-.568 0l-.935.151a.376.376 0 0 1-.074.007Zm1.292-1.112c.145 0 .29.012.433.035l.35.056a.85.85 0 0 0-1.565 0l.35-.056c.144-.023.29-.035.432-.035Zm2.416 12.853H6.058a.528.528 0 0 1-.526-.527c0-.29.237-.527.526-.527h4.632a.528.528 0 0 1 0 1.054Z" fill="#00A609"/></svg>
